X: 36665
T: Shaskeen, The
R: jig
M: 6/8
K: Dmajor
|:fgf edB|BAF FEF|EDB, DFA|BAF ABd|
fgf edB|BAF FEF|EDB, DFA|Bdc d3:|
|:fef afe|edB BAF|dAF DFA|BAF EFA|
BcB AFE|DFA BAF|dcd fgf|edc d3:|

